X:30
T:The Ivory Lady
C:Diarmaid Moynihan
D:Lúnasa: Sé (2006)
D:Diarmaid and Donncha Moynihan: The Lights of Ranzanico (2010)
N:Tune appris avec Cyrille le 2019-07-03
Z:Gwen 2019-07-06
R:Reel
M:2/2
Q:1/2=72
K:G
|: Gdeg d2BA | BGGG edBA | G2cB cGGG | cBAB AGED |
   Gdeg d2BA | BGGG edBg | edcB cdde |1 cBAB AGED :|2 cBAB AGG2 |
|: Bdde g2ed | Bged egg2 | eaab a2ag | eaab abg2 |
   Bdde g2ed | Bged egg2 | G2cB cdde |1 cBAB AGG2 :|2 cBAB AGED |

